Cloud/dashboard/static/tracks/suzuka.svg

<?xml version="1.0" encoding="UTF-8"?>
<!-- Uploaded to: SVG Find, www.svgfind.com, Generator: SVG Find Mixer Tools -->
<svg fill="#000000" width="800px" height="800px" version="1.1" viewBox="144 144 512 512" xmlns="http://www.w3.org/2000/svg">
 <path d="m606.52 199.07c-12.082-10.898-22.465-13.188-29.047-13.188-3.3672 0-6.5938 0.56641-9.5938 1.6875l-96.035 35.84-2.0625-5.6367 39.719-14.516 10.605-3.875-15.543-3.0625-2.1836 4.2969-38.914 14.223 3.7617 10.293-54.742 20.43c-2.1016 0.78125-4.1797 1.6328-6.2305 2.5469l-20.781 9.2812c-5.7344 2.5586-10.867 5.8359-15.254 9.7422-18.238 16.219-14.211 32.875-8.0547 49.973l-4.8008 1.793c-4.793 1.7891-7.4219 7.0352-5.9844 11.941 2.9258 9.9727 8.7773 28.5 15.062 40.527 2.6289 5.0312 6.1094 13.332 10.344 24.656 5.2891 14.156 4.25 29.566-2.7812 42.758l-49.621-7.0234c-6.6094-0.9375-12.789-4.1133-17.398-8.9414l-9.7148-10.18c-3.9414-4.125-11.094-4.2383-15.172-0.25-3.8359 3.7617-4.2695 9.8125-1.0117 14.074 6.832 8.957 23.031 30.184 27.238 35.637 1.2812 2.1328 4.2891 14.578 2.875 22.695-0.23437 1.3594-6.1133 33.488-34.156 54.918-7.6523 5.8516-22.297 11.688-27.434 12.25l-40.688 4.4531c-9.8242 1.0781-17.707 8.3125-19.617 18.008l-2.4414 12.395c-1.332 6.7422 0.41016 13.648 4.7656 18.953 4.3672 5.3086 10.77 8.3555 17.562 8.3594 1.375 0 2.7695-0.12891 4.1445-0.37891 8.4219-1.5391 15.707-4.5469 21.652-8.9336 14.895-10.984 46.887-36.68 56.516-45.156 2.5508-2.2461 4.9453-4.7305 7.1602-7.457l77.371-98.746c1.0508-1.293 2.0586-2.6328 3.0039-4.0078l16.109 2.2812c5.1836 0.71875 9.9922-2.4102 11.496-7.3125l8.9453-29.266c1.7695-5.7852 0.92578-12.027-2.3203-17.129-2.9688-4.6641-8.8164-14.117-19.832-32.66-19.258-32.414 0.625-54.266 11.309-66.008l0.62109-0.68359c3.8242-4.2148 8.6016-5.0977 11.934-5.0977 6.1797 0 13.004 3.0273 16.996 7.5391 6.875 7.7695 13.656 11.234 21.988 11.234 2.9023 0 6.0352-0.42578 9.5781-1.3008 11.609-2.8672 14.672-10.059 19.305-20.941 0.94141-2.2148 1.9844-4.6523 3.207-7.3359 2.9062-6.3672 7.4961-8.8477 16.367-8.8477 3.5117 0 7.3008 0.375 11.309 0.77344 1.8203 0.17969 3.6523 0.35938 5.4883 0.51172 16.109 1.3555 21.57-12.23 25.219-21.02 0.85547-2.0703 1.668-4.043 2.5586-5.7109 2.3008-4.3047 17.473-7.3125 28.551-9.5117 5.5195-1.0938 11.227-2.2266 16.289-3.5742 10.082-2.6797 16.969-8.7891 18.891-16.75 1.6992-7.0391-0.74219-14.348-6.5273-19.57zm-315.55 346.98c-1.8164 2.2305-3.8242 4.3203-5.9727 6.2109-9.5039 8.3633-41.117 33.754-55.855 44.621-4.7305 3.4883-10.645 5.8984-17.57 7.168-4.75 0.875-9.3359-0.90625-12.328-4.543-2.4766-3.0156-3.4648-6.9492-2.7109-10.789l2.4414-12.395c1.0742-5.4453 5.5039-9.5156 11.023-10.117l40.688-4.4531c7.2734-0.79688 23.32-7.3164 32.344-14.219 31.07-23.738 37.617-59.539 37.883-61.055 1.7695-10.16-1.625-26.285-4.6797-30.258-4.2969-5.5859-20.484-26.793-27.312-35.746-0.24219-0.31641-0.21094-0.77344 0.078126-1.0547 0.19531-0.19141 0.41406-0.23047 0.56641-0.23047 0.15625 0 0.38672 0.042969 0.57812 0.24609l9.7109 10.176c6.1328 6.4258 14.352 10.652 23.148 11.895l44.891 6.3555zm312.5-329.74c-1.0508 4.3438-5.3672 7.8203-11.848 9.5469-4.7578 1.2617-10.309 2.3633-15.676 3.4297-16.543 3.2812-30.828 6.1172-35.328 14.535-1.0742 2.0117-1.9922 4.2305-2.9648 6.5781-3.9766 9.582-7.207 15.602-15.316 14.977-1.7773-0.14453-3.5547-0.32422-5.3125-0.49609-4.0703-0.40234-8.2812-0.82422-12.281-0.82422-8.0117 0-19.352 1.5156-25.332 14.609-1.2656 2.7695-2.3359 5.2891-3.3086 7.5703-4.5742 10.738-6.0391 13.617-12.602 15.238-9.8828 2.4375-14.93 0.90234-21.824-6.8945-5.8359-6.5977-15.402-10.863-24.375-10.863-7.6328 0-14.281 2.8789-19.23 8.3281l-0.61328 0.67578c-10.617 11.668-35.477 38.988-12.492 77.672 8.8945 14.973 15.621 26.047 19.988 32.914 1.6953 2.668 2.1367 5.9336 1.2109 8.9609l-8.9453 29.27c-0.089844 0.30469-0.37109 0.44141-0.59375 0.44141l-11.883-1.6758-0.46094-0.066406c6.918-14.953 7.6016-31.957 1.7305-47.664-4.375-11.707-8.0234-20.375-10.84-25.77-6.1172-11.703-12.066-30.988-14.367-38.672l4.8008-1.793c5.0547-1.8867 7.6719-7.5508 5.8359-12.621-5.6992-15.762-8.4062-27.008 5.3281-39.223 3.6328-3.2344 7.9141-5.9609 12.723-8.1055l20.785-9.2812c1.8555-0.82812 3.7383-1.6016 5.6484-2.3125l155.4-57.988c7.9414-2.9609 18.449 0.42969 28.594 9.582 3.0586 2.7617 4.3867 6.4688 3.5508 9.9219z"/>
</svg>

<?xml version="1.0" encoding="utf-8"?>
<svg fill="#000000" width="800px" height="800px" version="1.1" viewBox="144 144 512 512" xmlns="http://www.w3.org/2000/svg">
  <path d="M 606.52 199.07 C 594.438 188.172 584.055 185.882 577.473 185.882 C 574.106 185.882 570.879 186.448 567.879 187.57 L 412.485 245.562 C 410.383 246.343 408.305 247.195 406.254 248.109 L 385.473 257.39 C 379.739 259.949 374.606 263.226 370.219 267.132 C 351.981 283.351 356.008 300.007 362.165 317.105 L 357.364 318.898 C 352.571 320.688 349.942 325.934 351.379 330.839 C 354.305 340.812 360.157 359.339 366.441 371.366 C 369.07 376.398 372.551 384.698 376.785 396.022 C 382.074 410.178 381.035 425.589 374.004 438.78 L 324.383 431.757 C 317.774 430.82 311.594 427.644 306.985 422.816 L 297.27 412.636 C 293.329 408.511 286.176 408.397 282.098 412.386 C 278.262 416.147 277.829 422.198 281.087 426.46 C 287.919 435.417 304.118 456.644 308.325 462.097 C 309.606 464.229 312.614 476.675 311.2 484.792 C 310.965 486.151 305.086 518.28 277.044 539.71 C 269.391 545.561 254.747 551.398 249.61 551.96 L 208.922 556.413 C 199.097 557.491 191.215 564.725 189.305 574.421 L 186.863 586.816 C 185.531 593.558 187.273 600.464 191.629 605.769 C 195.996 611.077 202.399 614.124 209.191 614.128 C 210.566 614.128 211.96 613.999 213.335 613.749 C 221.757 612.21 229.042 609.202 234.987 604.816 C 249.882 593.832 281.874 568.136 291.503 559.66 C 294.054 557.414 296.449 554.929 298.664 552.203 L 376.035 453.457 C 377.085 452.164 378.093 450.824 379.038 449.449 L 395.147 451.73 C 400.331 452.449 405.14 449.32 406.643 444.418 L 415.589 415.152 C 417.358 409.366 416.515 403.125 413.268 398.023 C 410.3 393.359 404.452 383.906 393.436 365.363 C 374.178 332.949 394.061 311.097 404.745 299.355 L 405.367 298.671 C 409.191 294.456 413.968 293.573 417.301 293.573 C 423.48 293.573 430.305 296.601 434.297 301.112 C 441.172 308.882 447.953 312.346 456.285 312.346 C 459.187 312.346 462.32 311.921 465.863 311.046 C 477.472 308.178 480.535 300.987 485.168 290.105 C 486.109 287.89 487.152 285.452 488.375 282.769 C 491.281 276.402 495.871 273.921 504.742 273.921 C 508.253 273.921 512.042 274.296 516.051 274.694 C 517.871 274.874 519.703 275.054 521.539 275.206 C 537.648 276.562 543.109 262.976 546.758 254.186 C 547.613 252.116 548.426 250.143 549.317 248.475 C 551.617 244.171 566.79 241.163 577.868 238.964 C 583.387 237.87 589.095 236.737 594.157 235.389 C 604.239 232.71 611.126 226.6 613.048 218.639 C 614.747 211.6 612.305 204.291 606.52 199.069 L 606.52 199.07 Z M 290.97 546.05 C 289.154 548.281 287.146 550.37 284.997 552.261 C 275.493 560.624 243.88 586.015 229.142 596.882 C 224.412 600.37 218.497 602.78 211.572 604.05 C 206.822 604.925 202.236 603.144 199.244 599.507 C 196.768 596.491 195.78 592.558 196.533 588.718 L 198.975 576.323 C 200.049 570.878 204.479 566.807 209.998 566.206 L 250.686 561.753 C 257.959 560.956 274.006 554.436 283.03 547.534 C 314.1 523.796 320.647 487.995 320.913 486.479 C 322.682 476.319 319.288 460.194 316.233 456.221 C 311.936 450.635 295.749 429.428 288.921 420.475 C 288.679 420.158 288.71 419.701 288.999 419.42 C 289.195 419.229 289.413 419.19 289.566 419.19 C 289.722 419.19 289.952 419.233 290.144 419.436 L 299.855 429.612 C 305.988 436.038 314.207 440.264 323.003 441.507 L 367.894 447.862 L 290.97 546.05 Z M 603.47 216.31 C 602.419 220.654 598.103 224.13 591.622 225.857 C 586.864 227.119 581.313 228.22 575.946 229.287 C 559.403 232.568 545.118 235.404 540.618 243.822 C 539.544 245.833 538.626 248.052 537.653 250.4 C 533.677 259.982 530.446 266.002 522.337 265.377 C 520.56 265.232 518.783 265.053 517.025 264.881 C 512.954 264.478 508.744 264.056 504.744 264.056 C 496.732 264.056 485.392 265.572 479.412 278.665 C 478.146 281.435 477.076 283.955 476.103 286.236 C 471.529 296.974 470.064 299.853 463.501 301.474 C 453.618 303.911 448.571 302.376 441.677 294.579 C 435.841 287.982 426.275 283.716 417.302 283.716 C 409.669 283.716 403.021 286.595 398.072 292.044 L 397.459 292.72 C 386.842 304.388 361.982 331.708 384.967 370.392 C 393.861 385.365 400.588 396.439 404.955 403.306 C 406.65 405.974 407.092 409.24 406.166 412.267 L 397.22 441.537 C 397.131 441.842 396.849 441.978 396.627 441.978 L 384.744 440.303 L 384.283 440.236 C 391.201 425.283 391.884 408.279 386.013 392.572 C 381.638 380.865 377.99 372.197 375.173 366.802 C 369.056 355.099 363.107 335.814 360.806 328.13 L 365.607 326.337 C 370.662 324.451 373.279 318.786 371.443 313.716 C 365.744 297.954 363.037 286.708 376.771 274.493 C 380.404 271.259 384.685 268.532 389.494 266.388 L 410.279 257.107 C 412.135 256.278 414.017 255.505 415.927 254.794 L 571.327 196.806 C 579.269 193.845 589.776 197.236 599.921 206.388 C 602.98 209.15 604.308 212.857 603.472 216.31 L 603.47 216.31 Z"/>
</svg>
